X:1
T:Sacris solemniis - Casciolini
T:James Gibb editions
T:#
%%score [ 1 2 3 4 ]
L:1/8
Q:1/4=80
M:4/4
K:F
V:1 treble nm="Soprano" snm="S"
V:2 treble nm="Alto" snm="A"
V:3 treble-8 nm="Tenor" snm="T"
V:4 bass nm="Bass" snm="B"
V:1
"^Sacris solemniis""^Claudio Casciolini\n(1697-1760)"!p!!<(! G4 G2 d2!<)! | (B3 A!>(! G2) G2!>)! | %2
w: Sa- cris so-|le\- * * mni-|
 ^F4!<(! G4 | G2!<)! A2!f! (Bcdc | B3)!>(! B A4!>)! | z2!mf! A2 A2 B2 |[M:4/4] G3 G G2 G2 | %7
w: is Jun-|cta sunt gau\- * * *|* di- a,|Et ex prae-|cor- di- is So-|
 G2 A2 ^F3 F | ^F2!<(! F2 (GA)!<)! B2- | B (A/G/ A>)B B4 | z2!f! B2 c2 B2 | B2 (AG) A4 | %12
w: nent prae- co- ni-|a, so- nent * prae\-|* co\- * * ni- a.|Re- ce- dant|ve- te\- * ra,|
 z2!mf! G2 A2 G2 | G2 (^FE) F4 | z8 | z2 G4 G2 | %16
w: No- va sint|o- mni\- * a,||Cor- da,|
"^rit."[Q:1/4=78] ^F2[Q:1/4=76] G[Q:1/4=74]G[Q:1/4=72]!>(! (G2[Q:1/4=69] F>)[Q:1/4=68]F!>)! | %17
w: vo- ces et o\- * pe-|
[Q:1/4=68] !fermata!G8 |] %18
w: ra.|
V:2
!p! D4!<(! D2 D2- | D2!<)! (CB,!>(! C3) C!>)! | D4!<(! D4 | D2!<)! F2!f! (F4- | %4
w: Sa- cris so\-|* le\- * * mni-|is Jun-|cta sunt gau\-|
 FE/D/!>(! E>)E!>)! F4 | z2!mf! F2 F2 F2 |[M:4/4] _E3 E E2 E2 | _E2 E2 D3 D | D2!<(! D2 D2 G2!<)! | %9
w: * * * * di- a,|Et ex prae-|cor- di- is So-|nent prae- co- ni-|a, so- nent prae-|
 F3 F F4 | z2!f! F2 F2 F2 | F3 F F4 | z2!mf! D2 D2 D2 | D3 D D4 | z4 z2 G2- | G2 G2 _E4 | %16
w: co- ni- a.|Re- ce- dant|ve- te- ra,|No- va sint|o- mni- a,|Cor\-|* da, vo-|
"^rit." D2 D2!>(! D3 D!>)! | !fermata!D8 |] %18
w: ces et o- pe-|ra.|
V:3
!p! B4!<(! B2 A2 | G6!<)!!>(! G2 | A4!>)!!<(! B4 | B2!<)! c2!f! (dcBc | d2)!>(! B2 c4!>)! | %5
w: Sa- cris so-|le- mni-|is Jun-|cta sunt gau\- * * *|* di- a,|
 z2!mf! c2 c2 d2 |[M:4/4][K:treble-8] B3 B B2 B2 | B2 c2 A3 A | A2!<(! A2 B2 _e2!<)! | c3 c d4 | %10
w: Et ex prae-|cor- di- is So-|nent prae- co- ni-|a, so- nent prae-|co- ni- a.|
 z2!f! d2 c2 d2 | c3 c c4 | z2!mf! B2 A2 B2 | A3 A A2 d2- | d2 d2 (B3 A) | G2 B2 (c4- | %16
w: Re- ce- dant|ve- te- ra,|No- va sint|o- mni- a, Cor\-|* da, vo\- *|ces et o\-|
"^rit." c2 B2!>(! A3) A!>)! | !fermata!=B8 |] %18
w: * * * pe-|ra.|
V:4
!p! G,4!<(! G,2 F,2 | _E,6!<)!!>(! E,2 | D,4!>)!!<(! G,4 | G,2!<)! F,2 (B,3 A, | %4
w: Sa- cris so-|le- mni-|is Jun-|cta sunt gau\- *|
 G,3)!>(! G, F,4!>)! | z2!mf! F,2 F,2 D,2 |[M:4/4] _E,3 E, E,2 E,2 | _E,2 C,2 D,3 D, | %8
w: * di- a,|Et ex prae-|cor- di- is So-|nent prae- co- ni-|
 D,2!<(! D,2 G,2 _E,2!<)! | F,3 F, B,,4 | z2!f! B,2 A,2 B,2 | F,3 F, F,4 | z2!mf! G,2 ^F,2 G,2 | %13
w: a, so- nent prae-|co- ni- a.|Re- ce- dant|ve- te- ra,|No- va sint|
 D,3 D, D,4 | z2 G,4 G,2 | (_E,3 D,) C,2 C,2 |"^rit."!>(! D,6 D,2!>)! | !fermata!G,,8 |] %18
w: o- mni- a,|Cor- da,|vo\- * ces et|o- pe-|ra.|

